X: 1
T: the Wild Colonial Boy
R: march
N: Usually in waltz time
Z: 2011 John Chambers <jc:trillian.mit.edu>
M: C|
L: 1/4
K: G
   d2 | "G"G3 B | d3 d | "Am"e2 c2 | A3  G | "D7"F  D3 | B2 A2 | "G"G4- | G2 |
|: Bc | "G"d3 d | g3 d | "Am"f2 e2 | A2 AB | "D7"c2 d2 | f2 e2 | "G"d4- | d2 :|
   BA | "G"G3 B | d3 d | "Am"e2 c2 | A3  G | "D7"F2 D2 | B3 A  | "G"G4- | G2 |]
